X:603
T:Miss Ambercromby's Reel
R:Reel
S:Marshall - 1781 Collection
M:C|
L:1/8
K:C Minor
(EDC)(D EF)GE|FBFB DB,FD|(EDC)(D EF)Gc|B<G F>D C/C/C C2:|
(edc)(d ef)ge|(dcB)(c de)fd|1 (edc)(d ef)ge|d>cBd c/c/c c:|2
gefd ecdB|GD C/C/C C2||
